!!!OTL: 61. Der Himmel unser Hort!
!!!COM: A. Methfessel
!!!ARE: Europa, Mitteleuropa, Deutschland
!!!SCT: B0061
!!!TXL: @@DE
!!!YEM: Copyright 1995, estate of Helmut Schaffrath.
**kern	**text
*ICvox	*
*Ivox	*
*M2/2	*
*met(c|)	*
*clefG2	*
*k[f#c#]	*
*D:	*
!LO:TX:a:t=Markig.	!
{4d	Der
=1	=1
4.f#	Him-
8f#	-mel
4.a	un-
8a	-ſer
=2	=2
2dd	Hort!
4r}	.
{8.ddL	Die
16cc#J	.
=3	=3
4b	Frei-
8.cc#L	-heit
16a#J	.
4b	un-
8.cc#L	-ſer
16a#J	.
=4	=4
2b	Wort!
4r}	.
{8cc#L	So
8ddJ	.
=5	=5
4.ee	gehn
8dd	wir
8.cc#L	Hand
16bJ	.
8.aL	in
16gJ	.
=6	=6
2f#}	Hand
{2a	ʒum
=7	=7
4.b	Kampf
8ee	fürs
4dd	Va-
4cc#	-ter-
=8	=8
2dd	-land.
4r}	.
==	==
!!!AGN: Kriegs -, Sieges -, Soldaten - Lied
!!!GTL: Kriegs- und Siegeslieder
!!!ONB: ESAC (Essen Associative Code) Database: BOEHME
!!!AMT: simple duple
!!!AIN: vox
!!!EED: Helmut Schaffrath
!!!EEV: 1.0
!!@@COMMENT:"Gedicht von E. M. Arndt. 1813"
!!@@END:
!!Text: E. M. Arndt
!!!URL-scan: https://archive.org/details/BoehmeVtLieder1895/page/n75/mode/2up
!!!ENC: Anna Maria Matuszewska
!!!EEV: 2024/14/06
*-	*-
